src/img/channel/channel_5.svg

<svg fill="none" height="35" viewBox="0 0 130 35" width="130" xmlns="http://www.w3.org/2000/svg"><path d="m0 0v32.5104l32.5104-32.5104z" fill="#92cfae"/><path d="m2.32227 34.8326h32.51033v-32.51033z" fill="#2a8288"/><g fill="#fff"><path clip-rule="evenodd" d="m53.2853 0h-11.818v34.8325h7.7031v-12.6661h4.3539c7.7996 0 12.8234-3.5079 12.8234-10.8643v-.1943c0-7.35684-4.7371-11.1078-13.0624-11.1078zm5.5983 11.3514c0 3.4587-2.0095 5.3098-5.7895 5.3098h-3.9237v-10.66889h3.9237c3.6841 0 5.7895 1.46141 5.7895 5.16369z" fill-rule="evenodd"/><path clip-rule="evenodd" d="m69.665 34.8325h12.2996c8.3091 0 12.5808-3.9463 12.5808-10.7662v-.1955c0-6.966-4.6003-10.4253-12.3463-10.4253h-5.0231l.0473-7.30701h14.318v-6.13849h-21.8763zm17.6045-10.8155c0 3.1669-1.878 4.8232-5.5867 4.8232h-4.5068v-9.8407h4.3191c3.8964 0 5.7744 1.7049 5.7744 4.8232z" fill-rule="evenodd"/><path d="m100.144.0486457h8.088v14.9839543l12.481-15.0326h8.588l-14.129 16.492 14.828 18.3405h-9.436l-12.332-15.6163v15.6163h-8.088z"/></g></svg>

<svg width="130" height="35" viewBox="0 0 130 35" fill="none" xmlns="http://www.w3.org/2000/svg">
<path d="M0 0V32.5104L32.5104 0H0Z" fill="#92CFAE"/>
<path d="M2.32227 34.8326H34.8326V2.32227L2.32227 34.8326Z" fill="#2A8288"/>
<path fill-rule="evenodd" clip-rule="evenodd" d="M53.2853 0H41.4673V34.8325H49.1704V22.1664H53.5243C61.3239 22.1664 66.3477 18.6585 66.3477 11.3021V11.1078C66.3477 3.75096 61.6106 0 53.2853 0ZM58.8836 11.3514C58.8836 14.8101 56.8741 16.6612 53.0941 16.6612H49.1704V5.99231H53.0941C56.7782 5.99231 58.8836 7.45372 58.8836 11.156V11.3514Z" fill="white"/>
<path fill-rule="evenodd" clip-rule="evenodd" d="M69.665 34.8325H81.9646C90.2737 34.8325 94.5454 30.8862 94.5454 24.0663V23.8708C94.5454 16.9048 89.9451 13.4455 82.1991 13.4455H77.176L77.2233 6.13849H91.5413V0H69.665V34.8325ZM87.2695 24.017C87.2695 27.1839 85.3915 28.8402 81.6828 28.8402H77.176V18.9995H81.4951C85.3915 18.9995 87.2695 20.7044 87.2695 23.8227V24.017Z" fill="white"/>
<path d="M100.144 0.0486457H108.232V15.0326L120.713 0H129.301L115.172 16.492L130 34.8325H120.564L108.232 19.2162V34.8325H100.144V0.0486457Z" fill="white"/>
</svg>
